X: 1
T: John Howat's Reel
C: Hugh Dunlop
R: reel
B: Kerr v.2 p.20 #173
B: NHSRS 10.3
B: BSFC Session Tune Book 2016 p.52
S: Barbara McOwen
Z: 2019 John Chambers <jc:trillian.mit.edu>
M: C|
L: 1/8
K: D
"A"|: {e}fg |\
"D"a2fd "A7"g2ec | "D"d2AG "D7"FDFA |\
"G"E2FG ABcd |[1,3 "Em"eAfA "A7"g2 :|\
[2,4 "A7"eABc "D"d2 "B"|: A2 |\
"D"defg "D7"aAfA |
"G"gfed "A7"ceAe |\
"D"defg aAfA | "E7"gba^g "A7"a3g |\
"D"abaf "Em"=gfed | "A7"eAfA GFEG |\
"D"F2AF "G"G2BG |  "A7"Adce  "D"d2 |]
